svg/business/palette_3_line.svg

<svg xmlns="http://www.w3.org/2000/svg" width="24" height="24" viewBox="0 0 24 24"><g fill="none"><path d="M24,0 L24,24 L0,24 L0,0 L24,0 Z M12.5935,23.2578 L12.5819,23.2595 L12.5109,23.295 L12.4919,23.2987 L12.4767,23.295 L12.4057,23.2595 C12.3958,23.2564 12.387,23.259 12.3821,23.2649 L12.378,23.2758 L12.3609,23.7031 L12.3659,23.7235 L12.3769,23.7357 L12.4805,23.8097 L12.4953,23.8136 L12.5071,23.8097 L12.6107,23.7357 L12.6233,23.7197 L12.6267,23.7031 L12.6096,23.2758 C12.6076,23.2657 12.601,23.2593 12.5935,23.2578 Z M12.8584,23.1453 L12.8445,23.1473 L12.6598,23.2397 L12.6499,23.2499 L12.6472,23.2611 L12.6651,23.6906 L12.6699,23.7034 L12.6784,23.7105 L12.8793,23.8032 C12.8914,23.8069 12.9022,23.803 12.9078,23.7952 L12.9118,23.7812 L12.8777,23.1665 C12.8753,23.1546 12.8674,23.147 12.8584,23.1453 Z M12.143,23.1473 C12.1332,23.1424 12.1222,23.1453 12.1156,23.1526 L12.1099,23.1665 L12.0758,23.7812 C12.0751,23.7927 12.0828,23.8019 12.0926,23.8046 L12.1083,23.8032 L12.3092,23.7105 L12.3186,23.7024 L12.3225,23.6906 L12.3404,23.2611 L12.3372,23.2485 L12.3278,23.2397 L12.143,23.1473 Z"/><path fill="#09244B" d="M11,3 C11.4808,3 11.922,3.16966 12.2669,3.45237 L17.0981,6.24164 C17.5141,6.48182 17.8112,6.84888 17.9686,7.26572 L20.7586,12.098 C21.3109,13.0546 20.9831,14.2778 20.0265,14.8301 L10.5791,20.2845 C9.81756,20.742 8.90877,20.998 8.02056,21.0008201 C7.11793,21.0053 6.19048,20.749 5.4192,20.2833 C4.88243,19.9605 4.40066,19.5333 4.00749,19.0104 C3.37505,18.173 3,17.1303 3,16 L3,5 C3,3.89543 3.89543,3 5,3 L11,3 Z M10.9475,5 L5,5 L5,16 C5,17.625 6.36185,19 8,19 C9.63438,19 11,17.626 11,16 L11,5.03032 L10.9475,5 Z M8,14.5 C8.82843,14.5 9.5,15.1716 9.5,16 C9.5,16.8284 8.82843,17.5 8,17.5 C7.17157,17.5 6.5,16.8284 6.5,16 C6.5,15.1716 7.17157,14.5 8,14.5 Z M17.2377,9.99975 L13.6602,16.1963 L19.0265,13.098 L17.2377,9.99975 Z M13,6.18502 L13,13.3397 L16.083,7.99975 L16.0529,7.94764 L13,6.18502 Z"/></g></svg>

<svg xmlns="http://www.w3.org/2000/svg" width="24" height="24"><g fill="none"><path d="M24 0v24H0V0zM12.594 23.258l-.012.002-.071.035-.02.004-.014-.004-.071-.036c-.01-.003-.019 0-.024.006l-.004.01-.017.428.005.02.01.013.104.074.015.004.012-.004.104-.074.012-.016.004-.017-.017-.427c-.002-.01-.009-.017-.016-.018m.264-.113-.014.002-.184.093-.01.01-.003.011.018.43.005.012.008.008.201.092c.012.004.023 0 .029-.008l.004-.014-.034-.614c-.003-.012-.01-.02-.02-.022m-.715.002a.023.023 0 0 0-.027.006l-.006.014-.034.614c0 .012.007.02.017.024l.015-.002.201-.093.01-.008.003-.011.018-.43-.003-.012-.01-.01z"/><path fill="#09244B" d="M11 3c.48 0 .922.17 1.267.452l4.831 2.79c.416.24.713.607.87 1.024l2.79 4.832a2 2 0 0 1-.732 2.732l-9.447 5.455A5.074 5.074 0 0 1 8.021 21a5.064 5.064 0 0 1-2.602-.718 4.966 4.966 0 0 1-1.412-1.273A4.978 4.978 0 0 1 3 16V5a2 2 0 0 1 2-2zm-.053 2H5v11c0 1.625 1.362 3 3 3 1.634 0 3-1.374 3-3V5.03zM8 14.5a1.5 1.5 0 1 1 0 3 1.5 1.5 0 0 1 0-3m9.238-4.5-3.578 6.196 5.366-3.098zM13 6.185v7.155L16.083 8l-.03-.052z"/></g></svg>
